src/assets/smoothtransitionicon.svg

<svg width="56" height="56" viewBox="0 0 56 56" fill="none" xmlns="http://www.w3.org/2000/svg">
<rect opacity="0.3" x="11" y="23.0879" width="6" height="16" fill="#FF0000"/>
<rect opacity="0.3" x="39" y="23.0879" width="6" height="16" fill="#FF0000"/>
<rect opacity="0.3" x="25" y="50" width="5" height="7" transform="rotate(-90 25 50)" fill="#FF0000"/>
<path d="M41.8299 41.0358C42.1552 41.0358 42.4805 41.0499 42.8058 41.017C43.5601 40.9417 44.2578 40.7581 44.9225 40.391C46.1106 39.7368 47.0252 38.5602 47.3693 37.2518C47.6333 36.2446 47.5391 35.1291 47.5391 34.0984V26.3939C47.5391 25.4337 47.2986 24.4689 46.7847 23.65C46.0682 22.511 44.8943 21.6262 43.5648 21.3485C42.5653 21.1414 41.3301 21.132 40.3543 21.4426C39.0672 21.8521 37.9027 22.7699 37.304 23.9983C36.9221 24.7795 36.743 25.5891 36.743 26.4598V35.6986C36.743 36.3528 36.7996 37.0165 37.0353 37.633C37.5209 38.8944 38.4308 40.0004 39.6895 40.5463C40.3731 40.8523 41.0708 41.0264 41.8299 41.0358C42.57 41.0405 43.2772 40.3816 43.2442 39.6239C43.2112 38.852 42.6219 38.2166 41.8299 38.2119C41.6554 38.2119 41.4857 38.1978 41.3113 38.1743C41.4386 38.1931 41.5611 38.2072 41.6884 38.226C41.3726 38.179 41.0708 38.0942 40.7786 37.9719L41.118 38.1131C40.9106 38.0237 40.7078 37.9154 40.5193 37.793C40.5098 37.7883 40.3684 37.6989 40.3684 37.6848C40.3684 37.6895 40.6795 37.9436 40.4863 37.7742C40.4014 37.6989 40.3165 37.6283 40.2364 37.5483C40.1657 37.4777 40.095 37.4024 40.029 37.3224C39.9488 37.2283 39.8734 37.0635 40.095 37.4165C40.062 37.3647 40.0242 37.3177 39.9865 37.2659C39.8592 37.0776 39.7555 36.8753 39.6659 36.6682L39.8074 37.007C39.6848 36.7152 39.5999 36.414 39.5528 36.0987C39.5717 36.2258 39.5858 36.3481 39.6047 36.4752C39.5481 36.0375 39.5669 35.5857 39.5669 35.1433V27.3587C39.5669 26.841 39.5339 26.3092 39.6047 25.7961C39.5858 25.9232 39.5717 26.0456 39.5528 26.1727C39.5999 25.8573 39.6848 25.5561 39.8074 25.2643L39.6659 25.6032C39.7555 25.3961 39.8639 25.1937 39.9865 25.0055C39.9912 24.996 40.0808 24.8548 40.095 24.8548C40.0902 24.8548 39.8357 25.1655 40.0054 24.9725C40.0808 24.8878 40.1515 24.8031 40.2317 24.7231C40.3024 24.6525 40.3778 24.5819 40.458 24.516C40.5523 24.436 40.7173 24.3607 40.3637 24.5819C40.4155 24.5489 40.4627 24.5113 40.5145 24.4736C40.7031 24.3465 40.9058 24.243 41.1133 24.1536L40.7738 24.2948C41.0661 24.1724 41.3679 24.0877 41.6837 24.0406C41.5564 24.0594 41.4339 24.0736 41.3066 24.0924C41.8346 24.0218 42.4286 24.0218 42.9613 24.0924C42.834 24.0736 42.7115 24.0594 42.5842 24.0406C42.9001 24.0877 43.2018 24.1724 43.4941 24.2948L43.1546 24.1536C43.3621 24.243 43.5648 24.3512 43.7534 24.4736C43.7628 24.4783 43.9042 24.5677 43.9042 24.5819C43.9042 24.5772 43.5931 24.323 43.7864 24.4924C43.8712 24.5677 43.9561 24.6383 44.0362 24.7184C44.1069 24.789 44.1777 24.8643 44.2437 24.9443C44.3238 25.0384 44.3992 25.2031 44.1777 24.8501C44.2107 24.9019 44.2484 24.949 44.2861 25.0007C44.4134 25.189 44.5171 25.3914 44.6067 25.5985L44.4652 25.2596C44.5878 25.5514 44.6727 25.8526 44.7198 26.168C44.701 26.0409 44.6868 25.9185 44.668 25.7914C44.7245 26.2291 44.7057 26.681 44.7057 27.1234V34.9079C44.7057 35.4257 44.7387 35.9575 44.668 36.4705C44.6868 36.3434 44.701 36.2211 44.7198 36.094C44.6727 36.4093 44.5878 36.7105 44.4652 37.0023L44.6067 36.6635C44.5171 36.8706 44.4087 37.0729 44.2861 37.2612C44.2814 37.2706 44.1918 37.4118 44.1777 37.4118C44.1824 37.4118 44.437 37.1012 44.2672 37.2941C44.1918 37.3789 44.1211 37.4636 44.0409 37.5436C43.9702 37.6142 43.8948 37.6848 43.8146 37.7507C43.7204 37.8307 43.5554 37.906 43.9089 37.6848C43.8571 37.7177 43.8099 37.7554 43.7581 37.793C43.5695 37.9201 43.3668 38.0237 43.1593 38.1131L43.4988 37.9719C43.2065 38.0942 42.9048 38.179 42.5889 38.226C42.7162 38.2072 42.8388 38.1931 42.966 38.1743C42.5889 38.226 42.2117 38.2119 41.8299 38.2119C41.0897 38.2119 40.3825 38.8614 40.4155 39.6239C40.4485 40.3863 41.0331 41.0358 41.8299 41.0358ZM13.5244 41.0358C13.8497 41.0358 14.175 41.0499 14.5003 41.017C15.2546 40.9417 15.9523 40.7581 16.6171 40.391C17.8051 39.7368 18.7197 38.5602 19.0638 37.2518C19.3279 36.2446 19.2336 35.1291 19.2336 34.0984V26.3939C19.2336 25.4337 18.9931 24.4689 18.4793 23.65C17.7627 22.511 16.5888 21.6262 15.2593 21.3485C14.2598 21.1414 13.0246 21.132 12.0488 21.4426C10.7617 21.8521 9.59725 22.7699 8.99852 23.9983C8.61665 24.7795 8.4375 25.5891 8.4375 26.4598V35.6986C8.4375 36.3528 8.49407 37.0165 8.7298 37.633C9.21538 38.8944 10.1253 40.0004 11.384 40.5463C12.0676 40.8523 12.7654 41.0264 13.5244 41.0358C14.2645 41.0405 14.9717 40.3816 14.9387 39.6239C14.9057 38.852 14.3164 38.2166 13.5244 38.2119C13.3499 38.2119 13.1802 38.1978 13.0058 38.1743C13.1331 38.1931 13.2557 38.2072 13.3829 38.226C13.0671 38.179 12.7654 38.0942 12.4731 37.9719L12.8125 38.1131C12.6051 38.0237 12.4023 37.9154 12.2138 37.793C12.2043 37.7883 12.0629 37.6989 12.0629 37.6848C12.0629 37.6895 12.3741 37.9436 12.1808 37.7742C12.0959 37.6989 12.011 37.6283 11.9309 37.5483C11.8602 37.4777 11.7895 37.4024 11.7235 37.3224C11.6433 37.2283 11.5679 37.0635 11.7895 37.4165C11.7565 37.3647 11.7187 37.3177 11.681 37.2659C11.5537 37.0776 11.45 36.8753 11.3605 36.6682L11.5019 37.007C11.3793 36.7152 11.2945 36.414 11.2473 36.0987C11.2662 36.2258 11.2803 36.3481 11.2992 36.4752C11.2426 36.0375 11.2614 35.5857 11.2614 35.1433V27.3587C11.2614 26.841 11.2284 26.3092 11.2992 25.7961C11.2803 25.9232 11.2662 26.0456 11.2473 26.1727C11.2945 25.8573 11.3793 25.5561 11.5019 25.2643L11.3605 25.6032C11.45 25.3961 11.5585 25.1937 11.681 25.0055C11.6857 24.996 11.7753 24.8548 11.7895 24.8548C11.7848 24.8548 11.5302 25.1655 11.6999 24.9725C11.7753 24.8878 11.846 24.8031 11.9262 24.7231C11.9969 24.6525 12.0723 24.5819 12.1525 24.516C12.2468 24.436 12.4118 24.3607 12.0582 24.5819C12.11 24.5489 12.1572 24.5113 12.2091 24.4736C12.3976 24.3465 12.6004 24.243 12.8078 24.1536L12.4683 24.2948C12.7606 24.1724 13.0624 24.0877 13.3782 24.0406C13.2509 24.0594 13.1284 24.0736 13.0011 24.0924C13.5291 24.0218 14.1231 24.0218 14.6558 24.0924C14.5286 24.0736 14.406 24.0594 14.2787 24.0406C14.5946 24.0877 14.8963 24.1724 15.1886 24.2948L14.8491 24.1536C15.0566 24.243 15.2593 24.3512 15.4479 24.4736C15.4573 24.4783 15.5987 24.5677 15.5987 24.5819C15.5987 24.5772 15.2876 24.323 15.4809 24.4924C15.5657 24.5677 15.6506 24.6383 15.7307 24.7184C15.8015 24.789 15.8722 24.8643 15.9382 24.9443C16.0183 25.0384 16.0937 25.2031 15.8722 24.8501C15.9052 24.9019 15.9429 24.949 15.9806 25.0007C16.1079 25.189 16.2116 25.3914 16.3012 25.5985L16.1598 25.2596C16.2823 25.5514 16.3672 25.8526 16.4143 26.168C16.3955 26.0409 16.3813 25.9185 16.3625 25.7914C16.419 26.2291 16.4002 26.681 16.4002 27.1234V34.9079C16.4002 35.4257 16.4332 35.9575 16.3625 36.4705C16.3813 36.3434 16.3955 36.2211 16.4143 36.094C16.3672 36.4093 16.2823 36.7105 16.1598 37.0023L16.3012 36.6635C16.2116 36.8706 16.1032 37.0729 15.9806 37.2612C15.9759 37.2706 15.8863 37.4118 15.8722 37.4118C15.8769 37.4118 16.1315 37.1012 15.9617 37.2941C15.8863 37.3789 15.8156 37.4636 15.7355 37.5436C15.6647 37.6142 15.5893 37.6848 15.5092 37.7507C15.4149 37.8307 15.2499 37.906 15.6034 37.6848C15.5516 37.7177 15.5044 37.7554 15.4526 37.793C15.264 37.9201 15.0613 38.0237 14.8539 38.1131L15.1933 37.9719C14.901 38.0942 14.5993 38.179 14.2834 38.226C14.4107 38.2072 14.5333 38.1931 14.6606 38.1743C14.2834 38.226 13.9062 38.2119 13.5244 38.2119C12.7842 38.2119 12.077 38.8614 12.11 39.6239C12.143 40.3863 12.7324 41.0358 13.5244 41.0358Z" fill="#B30000"/>
<path d="M11.2614 35.6469V24.789C11.2614 23.7724 11.2897 22.7605 11.4265 21.7486C11.4076 21.8756 11.3935 21.998 11.3746 22.1251C11.5915 20.5437 12.0158 19 12.6381 17.5315L12.4966 17.8704C12.8549 17.0279 13.2792 16.209 13.7601 15.4277C13.9958 15.0465 14.241 14.6794 14.505 14.317C14.571 14.2228 14.6417 14.1334 14.7077 14.044C14.7313 14.0111 14.7596 13.9781 14.7831 13.9452C14.934 13.7428 14.5568 14.2323 14.7124 14.0346C14.8539 13.8557 14.9953 13.6769 15.1461 13.5075C15.726 12.8203 16.3625 12.1755 17.0366 11.5825C17.2016 11.4413 17.3666 11.3001 17.5364 11.1589C17.6165 11.093 17.6967 11.0271 17.7768 10.9659C17.8569 10.9001 18.0597 10.7541 17.6872 11.0318C17.7391 10.9942 17.7862 10.9565 17.8381 10.9189C18.2011 10.6459 18.5783 10.3823 18.9648 10.1376C19.8276 9.58694 20.7328 9.11158 21.6756 8.71152L21.3362 8.85272C22.8071 8.23146 24.3534 7.80787 25.9375 7.59138C25.8102 7.6102 25.6876 7.62432 25.5603 7.64315C27.168 7.42665 28.8039 7.42665 30.4115 7.64315C30.2842 7.62432 30.1616 7.6102 30.0343 7.59138C31.6184 7.80787 33.1647 8.23146 34.6356 8.85272L34.2962 8.71152C35.1401 9.06922 35.9604 9.49281 36.743 9.97287C37.1249 10.2082 37.4926 10.4529 37.8556 10.7165C37.9499 10.7824 38.0395 10.853 38.129 10.9189C38.162 10.9424 38.195 10.9706 38.228 10.9942C38.4308 11.1448 37.9405 10.7683 38.1385 10.9236C38.3176 11.0648 38.4968 11.206 38.6665 11.3566C39.3548 11.9355 40.0007 12.5709 40.5947 13.2439C40.7361 13.4086 40.8776 13.5733 41.019 13.7428C41.085 13.8228 41.151 13.9028 41.2123 13.9828C41.2783 14.0628 41.4244 14.2652 41.1463 13.8934C41.184 13.9452 41.2217 13.9922 41.2594 14.044C41.5329 14.4064 41.7969 14.7829 42.042 15.1689C42.5936 16.0301 43.0698 16.9338 43.4705 17.8751L43.3291 17.5362C43.9514 19.0047 44.3757 20.5484 44.5925 22.1298C44.5737 22.0027 44.5595 21.8803 44.5407 21.7533C44.6821 22.8075 44.7057 23.8618 44.7057 24.9207V36.8282C44.7057 37.7319 44.7434 38.6543 44.6255 39.5533C44.6444 39.4262 44.6585 39.3038 44.6774 39.1768C44.5737 39.911 44.3757 40.6311 44.0928 41.3182L44.2342 40.9793C44.0174 41.4971 43.7486 41.9912 43.4375 42.4572C43.3621 42.5701 43.2819 42.6784 43.2065 42.7866C43.0321 43.0314 43.4139 42.5325 43.2583 42.7208C43.2206 42.7678 43.1829 42.8196 43.1405 42.8667C42.9613 43.0832 42.7775 43.2855 42.5795 43.4832C42.3815 43.6809 42.174 43.8691 41.9619 44.0433C41.9147 44.0809 41.8676 44.1233 41.8157 44.1609C41.6224 44.3163 42.0939 43.9539 41.9053 44.0903C41.7874 44.1751 41.6696 44.2598 41.5517 44.3398C41.085 44.6504 40.59 44.9187 40.0714 45.1352L40.4108 44.994C39.7225 45.2764 39.0059 45.4741 38.2658 45.5776C38.393 45.5588 38.5156 45.5447 38.6429 45.5258C37.8792 45.6294 37.106 45.6058 36.3376 45.6058H32.7404C32.0003 45.6058 31.2931 46.2553 31.3261 47.0178C31.3591 47.785 31.9484 48.4297 32.7404 48.4297H36.3187C36.7666 48.4297 37.2192 48.4392 37.667 48.4297C38.8598 48.4015 40.062 48.1709 41.1651 47.7191C43.4233 46.7872 45.3563 45.1164 46.45 42.9137C47.209 41.3935 47.5438 39.7745 47.5438 38.0848V24.1818C47.5391 21.9651 47.1666 19.72 46.4029 17.6351C45.5967 15.423 44.4228 13.4086 42.9095 11.6013C41.4857 9.90227 39.7414 8.44325 37.832 7.3231C35.8755 6.17942 33.6975 5.36049 31.4628 4.96985C29.0537 4.55097 26.6305 4.56509 24.2309 5.02162C22.0198 5.4405 19.8606 6.28767 17.9324 7.45018C16.0325 8.59857 14.307 10.0717 12.9115 11.7896C11.417 13.6251 10.262 15.663 9.48411 17.8986C8.78637 19.913 8.44221 22.0639 8.4375 24.1912V35.6469C8.4375 36.3858 9.08809 37.0918 9.85183 37.0588C10.6109 37.0212 11.2614 36.4376 11.2614 35.6469Z" fill="#B30000"/>
<path d="M31.3214 47.0178C31.3214 47.1496 31.3119 47.2766 31.2931 47.4037C31.3119 47.2766 31.3261 47.1543 31.3449 47.0272C31.3072 47.2766 31.2412 47.5167 31.1469 47.752L31.2884 47.4131C31.2177 47.5732 31.1375 47.7285 31.0432 47.8744C31.0385 47.8838 30.9678 48.0062 30.9584 48.0014C30.9536 48.0014 31.1941 47.7143 31.0668 47.8603C31.0055 47.9308 30.9442 47.9967 30.8829 48.0626C30.8264 48.1191 30.7651 48.1756 30.7038 48.2274C30.6142 48.3074 30.4869 48.3356 30.8216 48.1379C30.7886 48.1568 30.7556 48.185 30.7226 48.2085C30.5671 48.3121 30.4021 48.3968 30.2323 48.4721L30.5718 48.3309C30.3361 48.425 30.0956 48.4909 29.8457 48.5286C29.973 48.5097 30.0956 48.4956 30.2229 48.4768C29.5865 48.5568 28.917 48.505 28.2758 48.505C27.6205 48.505 26.9417 48.5568 26.2863 48.4815C26.4136 48.5003 26.5362 48.5145 26.6635 48.5333C26.4184 48.4956 26.1779 48.4344 25.9469 48.345L26.2863 48.4862C26.1072 48.4109 25.9328 48.3215 25.7725 48.2132C25.6405 48.1238 25.6169 48.0203 25.8243 48.2603C25.763 48.1897 25.6782 48.1332 25.6122 48.0673C25.5556 48.0109 25.4519 47.9261 25.4189 47.8555C25.4613 47.912 25.5085 47.9685 25.5509 48.0297C25.5226 47.992 25.4943 47.9497 25.466 47.912C25.3576 47.752 25.268 47.5779 25.1926 47.399L25.334 47.7379C25.2445 47.5073 25.1785 47.2719 25.1455 47.0225C25.1643 47.1496 25.1785 47.2719 25.1973 47.399C25.169 47.1402 25.1643 46.886 25.1973 46.6319C25.1785 46.7589 25.1643 46.8813 25.1455 47.0084C25.1832 46.7589 25.2492 46.5189 25.3435 46.2836L25.202 46.6224C25.2727 46.4624 25.3529 46.3071 25.4472 46.1612C25.4519 46.1518 25.5226 46.0294 25.532 46.0341C25.5368 46.0341 25.2963 46.3212 25.4236 46.1753C25.4849 46.1047 25.5462 46.0388 25.6075 45.9729C25.664 45.9165 25.7253 45.86 25.7866 45.8082C25.8762 45.7282 26.0035 45.7 25.6688 45.8976C25.7018 45.8788 25.7348 45.8506 25.7678 45.827C25.9233 45.7235 26.0883 45.6388 26.2581 45.5635L25.9186 45.7047C26.1543 45.6105 26.3948 45.5446 26.6446 45.507C26.5174 45.5258 26.3948 45.5399 26.2675 45.5588C26.9039 45.4788 27.5734 45.5305 28.2146 45.5305C28.8699 45.5305 29.5487 45.4788 30.204 45.5541C30.0768 45.5352 29.9542 45.5211 29.8269 45.5023C30.072 45.5399 30.3125 45.6011 30.5435 45.6906L30.204 45.5494C30.3832 45.6247 30.5576 45.7141 30.7179 45.8223C30.8499 45.9118 30.8735 46.0153 30.6661 45.7753C30.7274 45.8459 30.8122 45.9023 30.8782 45.9682C30.9348 46.0247 31.0385 46.1094 31.0715 46.18C31.0291 46.1236 30.9819 46.0671 30.9395 46.0059C30.9678 46.0435 30.9961 46.0859 31.0244 46.1236C31.1328 46.2836 31.2224 46.4577 31.2978 46.6366L31.1564 46.2977C31.2459 46.5283 31.3119 46.7636 31.3449 47.0131C31.3261 46.886 31.3119 46.7636 31.2931 46.6366C31.3119 46.7636 31.3214 46.8907 31.3214 47.0178C31.3308 47.7567 31.9672 48.4627 32.7357 48.4297C33.4947 48.3968 34.1595 47.8085 34.15 47.0178C34.1312 45.4364 33.2307 43.8503 31.7692 43.1632C31.1375 42.8666 30.5058 42.7019 29.8033 42.6972H27.0925C26.1968 42.6972 25.3482 42.8055 24.5467 43.2479C23.2833 43.9397 22.5195 45.2246 22.3545 46.6271C22.1659 48.2274 23.0145 49.7758 24.3299 50.6512C25.1549 51.2019 26.1072 51.3337 27.0737 51.3337H29.8175C30.5435 51.329 31.2365 51.1454 31.8824 50.8112C33.2779 50.0817 34.1359 48.5662 34.1547 47.0131C34.1642 46.2742 33.4994 45.5682 32.7404 45.6011C31.9625 45.6435 31.3308 46.2271 31.3214 47.0178Z" fill="#B30000"/>
</svg>

<svg width="56" height="56" viewBox="0 0 56 56" fill="none" xmlns="http://www.w3.org/2000/svg">
    <path opacity=".3" fill="red" d="M11 23.088h6v16h-6zM39 23.088h6v16h-6zM25 50v-5h7v5z"/>
    <path d="M41.832 41.036c.325 0 .65.014.976-.02.754-.075 1.452-.258 2.117-.625a5.146 5.146 0 0 0 2.446-3.14c.264-1.007.17-2.122.17-3.153v-7.704c0-.96-.24-1.925-.754-2.744-.717-1.14-1.89-2.024-3.22-2.302-1-.207-2.235-.216-3.21.094-1.288.41-2.452 1.328-3.051 2.556a5.49 5.49 0 0 0-.561 2.461v9.24c0 .654.056 1.317.292 1.934.486 1.261 1.396 2.367 2.654 2.913.684.306 1.382.48 2.14.49.741.004 1.448-.655 1.415-1.412-.033-.772-.622-1.408-1.414-1.412a3.85 3.85 0 0 1-.519-.038c.127.019.25.033.377.052a3.787 3.787 0 0 1-.91-.254l.34.14a4.053 4.053 0 0 1-.599-.32.874.874 0 0 1-.15-.108c0 .005.31.26.117.09-.085-.075-.17-.146-.25-.226a3.172 3.172 0 0 1-.207-.226c-.08-.094-.156-.259.066.094-.033-.051-.07-.099-.108-.15a3.65 3.65 0 0 1-.321-.598l.141.339a3.771 3.771 0 0 1-.254-.909c.019.127.033.25.052.377-.057-.438-.038-.89-.038-1.332v-7.785c0-.517-.033-1.05.038-1.562-.02.127-.033.25-.052.376.047-.315.132-.616.254-.908l-.141.339c.09-.207.198-.41.32-.598a.877.877 0 0 1 .109-.15c-.005 0-.26.31-.09.117.076-.085.147-.17.227-.25.07-.07.146-.14.226-.206.094-.08.26-.156-.094.066.051-.033.099-.071.15-.109.19-.127.392-.23.6-.32l-.34.142c.292-.123.594-.208.91-.255-.128.02-.25.033-.377.052a6.49 6.49 0 0 1 1.654 0c-.127-.019-.25-.033-.377-.052.316.047.618.132.91.255l-.34-.142c.208.09.41.198.6.32.009.005.15.095.15.109 0-.005-.311-.26-.118-.09.085.075.17.146.25.226.07.07.142.146.208.226.08.094.155.259-.066-.094.033.052.07.099.108.15.127.189.231.391.32.598l-.14-.339c.122.292.207.593.254.909-.02-.127-.033-.25-.052-.377.056.438.038.89.038 1.332v7.785c0 .517.033 1.05-.038 1.562.019-.127.033-.25.052-.376a3.771 3.771 0 0 1-.255.908l.142-.339c-.09.207-.198.41-.321.598a.872.872 0 0 1-.108.15c.004 0 .259-.31.09-.117-.076.085-.147.17-.227.25-.07.07-.146.14-.226.206-.095.08-.26.156.094-.066-.052.034-.1.071-.151.109-.189.127-.391.23-.599.32l.34-.141a3.787 3.787 0 0 1-.91.254c.127-.019.25-.033.377-.052-.377.052-.754.038-1.136.038-.74 0-1.447.65-1.415 1.412.033.762.618 1.412 1.415 1.412zm-28.306 0c.326 0 .65.014.976-.02.755-.075 1.452-.258 2.117-.625a5.146 5.146 0 0 0 2.447-3.14c.264-1.007.17-2.122.17-3.153v-7.704c0-.96-.24-1.925-.755-2.744-.716-1.14-1.89-2.024-3.22-2.302-1-.207-2.234-.216-3.21.094-1.287.41-2.452 1.328-3.05 2.556a5.49 5.49 0 0 0-.562 2.461v9.24c0 .654.057 1.317.293 1.934.485 1.261 1.395 2.367 2.654 2.913.684.306 1.381.48 2.14.49.74.004 1.448-.655 1.415-1.412-.033-.772-.623-1.408-1.415-1.412a3.85 3.85 0 0 1-.518-.038c.127.019.25.033.377.052a3.787 3.787 0 0 1-.91-.254l.34.14a4.05 4.05 0 0 1-.6-.32.873.873 0 0 1-.15-.108c0 .005.311.26.118.09-.085-.075-.17-.146-.25-.226a3.15 3.15 0 0 1-.208-.226c-.08-.094-.155-.259.066.094-.033-.051-.07-.099-.108-.15a3.65 3.65 0 0 1-.32-.598l.14.339a3.771 3.771 0 0 1-.254-.909c.02.127.033.25.052.377-.056-.438-.038-.89-.038-1.332v-7.785c0-.517-.033-1.05.038-1.562-.019.127-.033.25-.052.376.047-.315.132-.616.255-.908l-.142.339c.09-.207.198-.41.321-.598a.877.877 0 0 1 .108-.15c-.004 0-.259.31-.09.117.076-.085.147-.17.227-.25.07-.07.146-.14.226-.206.095-.08.26-.156-.094.066.052-.033.1-.071.151-.109.189-.127.391-.23.599-.32l-.34.142c.293-.123.594-.208.91-.255-.127.02-.25.033-.377.052a6.49 6.49 0 0 1 1.655 0c-.127-.019-.25-.033-.377-.052.316.047.617.132.91.255l-.34-.142c.207.09.41.198.599.32.01.005.15.095.15.109 0-.005-.31-.26-.117-.09.085.075.17.146.25.226.07.07.141.146.207.226.08.094.156.259-.066-.094.033.052.07.099.109.15.127.189.23.391.32.598l-.141-.339c.122.292.207.593.254.909-.019-.127-.033-.25-.052-.377.057.438.038.89.038 1.332v7.785c0 .517.033 1.05-.038 1.562.02-.127.033-.25.052-.376a3.771 3.771 0 0 1-.254.908l.141-.339c-.09.207-.198.41-.32.598a.878.878 0 0 1-.109.15c.005 0 .26-.31.09-.117-.076.085-.146.17-.227.25-.07.07-.146.14-.226.206-.094.08-.26.156.094-.066-.052.034-.099.071-.15.109-.189.127-.392.23-.6.32l.34-.141a3.787 3.787 0 0 1-.91.254c.128-.019.25-.033.377-.052-.377.052-.754.038-1.136.038-.74 0-1.447.65-1.414 1.412.033.762.622 1.412 1.414 1.412z" fill="#004498"/>
    <path d="M11.263 35.647V24.789c0-1.017.029-2.029.165-3.04-.019.126-.033.249-.052.376a18.056 18.056 0 0 1 1.264-4.594l-.141.34c.358-.843.782-1.662 1.263-2.443.236-.382.48-.749.745-1.111.066-.094.137-.184.203-.273.023-.033.051-.066.075-.1.151-.202-.226.288-.07.09.14-.179.282-.357.433-.527a18.24 18.24 0 0 1 1.89-1.925c.166-.14.33-.282.5-.423.08-.066.16-.132.24-.193.08-.066.284-.212-.089.066l.151-.113a18.356 18.356 0 0 1 3.838-2.207l-.34.14a18.132 18.132 0 0 1 4.601-1.26c-.127.018-.25.032-.377.05a18.198 18.198 0 0 1 4.851 0c-.127-.018-.25-.032-.377-.05 1.584.216 3.13.64 4.602 1.26l-.34-.14c.844.357 1.664.78 2.447 1.26.382.236.75.48 1.113.744.094.066.183.137.273.203.033.023.066.051.099.075.203.15-.288-.226-.09-.07.18.14.359.282.528.432a18.241 18.241 0 0 1 2.546 2.627c.066.08.212.282-.066-.09.038.052.076.099.113.15a18.318 18.318 0 0 1 2.211 3.831l-.141-.338a18.056 18.056 0 0 1 1.263 4.593c-.018-.127-.032-.249-.051-.376.141 1.054.165 2.108.165 3.168v11.907c0 .904.037 1.826-.08 2.725.018-.127.032-.25.051-.377a8.906 8.906 0 0 1-.584 2.142l.141-.339a8.753 8.753 0 0 1-.797 1.478c-.075.113-.155.221-.23.33-.175.244.207-.255.051-.066-.037.047-.075.098-.118.145a8.703 8.703 0 0 1-1.178 1.177c-.047.038-.094.08-.146.118-.194.155.278-.207.09-.07-.119.084-.236.169-.354.248-.467.311-.962.58-1.48.796l.339-.141a8.889 8.889 0 0 1-2.145.583l.377-.051c-.764.103-1.537.08-2.306.08h-3.597c-.74 0-1.447.65-1.414 1.412.033.767.622 1.411 1.414 1.411h3.579c.448 0 .9.01 1.348 0a9.891 9.891 0 0 0 3.498-.71c2.258-.932 4.191-2.603 5.285-4.806.759-1.52 1.094-3.139 1.094-4.828V24.182c-.005-2.217-.377-4.462-1.141-6.547A20.037 20.037 0 0 0 42.91 11.6a19.589 19.589 0 0 0-5.077-4.278 19.295 19.295 0 0 0-6.37-2.353 20.08 20.08 0 0 0-7.231.051 19.242 19.242 0 0 0-6.299 2.429 19.44 19.44 0 0 0-5.02 4.34 20.083 20.083 0 0 0-3.428 6.108 19.45 19.45 0 0 0-1.047 6.293v11.456c0 .739.651 1.445 1.415 1.412.759-.038 1.41-.622 1.41-1.412z" fill="#004498"/>
    <path d="M31.323 47.017c0 .132-.01.26-.028.386.019-.127.033-.249.052-.376a3.24 3.24 0 0 1-.198.725l.141-.34c-.07.16-.15.316-.245.462a.664.664 0 0 1-.085.127c-.004 0 .236-.287.109-.141-.061.07-.123.136-.184.202a2.975 2.975 0 0 1-.18.165c-.089.08-.216.108.119-.09-.033.02-.066.048-.1.071-.155.104-.32.189-.49.264l.34-.141a3.25 3.25 0 0 1-.726.197l.377-.051c-.637.08-1.306.028-1.947.028-.655 0-1.334.052-1.99-.024.128.02.25.033.378.052a3.417 3.417 0 0 1-.717-.188l.34.141a2.987 2.987 0 0 1-.515-.273c-.132-.09-.155-.193.052.047-.061-.07-.146-.127-.212-.193-.056-.056-.16-.141-.193-.212.042.057.09.113.132.174l-.085-.117a2.974 2.974 0 0 1-.273-.513l.141.339a3.075 3.075 0 0 1-.189-.716c.02.127.033.25.052.377a3.212 3.212 0 0 1 0-.767c-.019.127-.033.25-.052.376.038-.25.104-.49.198-.725l-.141.34c.07-.16.15-.316.245-.462a.661.661 0 0 1 .085-.127c.005 0-.236.287-.108.141.06-.07.122-.136.183-.202.057-.057.118-.113.18-.165.09-.08.216-.108-.118.09.033-.02.066-.048.099-.071.155-.104.32-.188.49-.264l-.34.141a3.25 3.25 0 0 1 .727-.197c-.128.019-.25.033-.378.052.637-.08 1.306-.029 1.948-.029.655 0 1.334-.052 1.989.024-.127-.019-.25-.033-.377-.052.245.038.485.099.716.188l-.339-.14c.18.074.354.164.514.272.132.09.155.193-.052-.047.061.07.146.127.212.193.057.056.16.141.194.212-.043-.057-.09-.113-.133-.174.029.037.057.08.085.117.109.16.198.335.274.513l-.142-.339c.09.231.156.466.189.716-.019-.127-.033-.25-.052-.377.019.127.028.255.028.381.01.74.646 1.445 1.415 1.412.759-.032 1.423-.62 1.414-1.412-.019-1.58-.92-3.167-2.38-3.854-.632-.297-1.264-.461-1.967-.466h-2.71c-.896 0-1.745.108-2.546.55-1.264.693-2.027 1.977-2.192 3.38-.19 1.6.66 3.149 1.975 4.024.825.55 1.777.682 2.744.682h2.743a4.524 4.524 0 0 0 2.065-.522c1.396-.73 2.254-2.245 2.273-3.798.01-.74-.656-1.445-1.415-1.412-.777.042-1.41.626-1.419 1.416z" fill="#004498"/>
</svg>
